X: 36195
T: Scottish Morvandelle
R: polka
M: 2/4
K: Cmajor
|:ga g>e|cd e>e|G/A/B/c/ dd|c/B/c/d/ ec|
ga g>e|cd e>e|G/A/B/c/ dd|g/f/e/d/ c>c:|
K: Amin
|:cB A>B|cd e>e|d/e/f/d/ ec|B/d/c/B/ A2|
cB A>B|cd e>e|d/e/f/d/ ec|B/d/c/B/ c2:|

